lib/brands/logos/slack.svg

<svg xmlns="http://www.w3.org/2000/svg" fill="none" aria-hidden="true" viewBox="0 0 206 57"><g id="Slack"><g id="Group"><path id="Vector" fill="black" d="M69.6757 41.5474L71.9867 36.1797C74.4842 38.0435 77.8017 39.0126 81.082 39.0126C83.5049 39.0126 85.0332 38.0807 85.0332 36.6643C84.9959 32.713 70.533 35.8069 70.4212 25.8916C70.3839 20.8594 74.857 16.9827 81.1938 16.9827C84.9587 16.9827 88.7235 17.9146 91.4074 20.0393L89.2454 25.5189C86.7852 23.9533 83.7286 22.835 80.8211 22.835C78.8455 22.835 77.5408 23.7669 77.5408 24.9597C77.5781 28.8364 92.1529 26.7117 92.302 36.1797C92.302 41.3237 87.9407 44.9395 81.6784 44.9395C77.0935 44.9395 72.8814 43.8585 69.6757 41.5474ZM158.354 34.2414C157.199 36.2542 155.037 37.6334 152.539 37.6334C148.849 37.6334 145.867 34.6514 145.867 30.9611C145.867 27.2708 148.849 24.2888 152.539 24.2888C155.037 24.2888 157.199 25.668 158.354 27.6808L164.729 24.1397C162.343 19.8902 157.758 16.9827 152.539 16.9827C144.823 16.9827 138.561 23.245 138.561 30.9611C138.561 38.6771 144.823 44.9395 152.539 44.9395C157.795 44.9395 162.343 42.0692 164.729 37.7825L158.354 34.2414V34.2414ZM95.5077 5.39001H103.485V44.4176H95.5077V5.39001ZM167.86 5.39001V44.4176H175.837V32.7131L185.305 44.4176H195.518L183.478 30.5138L194.624 17.5419H184.857L175.837 28.3145V5.39001H167.86ZM127.192 34.3159C126.036 36.217 123.651 37.6334 120.967 37.6334C117.277 37.6334 114.295 34.6514 114.295 30.9611C114.295 27.2708 117.277 24.2888 120.967 24.2888C123.651 24.2888 126.036 25.7798 127.192 27.7181V34.3159ZM127.192 17.5419V20.7103C125.887 18.511 122.644 16.9827 119.252 16.9827C112.244 16.9827 106.728 23.1705 106.728 30.9238C106.728 38.6771 112.244 44.9395 119.252 44.9395C122.644 44.9395 125.887 43.4112 127.192 41.2119V44.3803H135.169V17.5419H127.192Z"/><g id="Group_2"><path id="Vector_2" fill="#E01E5A" d="M20.3599 34.2787C20.3599 36.9998 18.1607 39.199 15.4395 39.199C12.7184 39.199 10.5192 36.9998 10.5192 34.2787C10.5192 31.5575 12.7184 29.3583 15.4395 29.3583H20.3599V34.2787ZM22.8201 34.2787C22.8201 31.5575 25.0194 29.3583 27.7405 29.3583C30.4616 29.3583 32.6609 31.5575 32.6609 34.2787V46.5796C32.6609 49.3007 30.4616 51.5 27.7405 51.5C25.0194 51.5 22.8201 49.3007 22.8201 46.5796V34.2787Z"/><path id="Vector_3" fill="#36C5F0" d="M27.7405 14.5225C25.0194 14.5225 22.8202 12.3233 22.8202 9.60215C22.8202 6.88102 25.0194 4.68176 27.7405 4.68176C30.4617 4.68176 32.6609 6.88102 32.6609 9.60215V14.5225H27.7405ZM27.7405 17.02C30.4617 17.02 32.6609 19.2193 32.6609 21.9404C32.6609 24.6615 30.4617 26.8608 27.7405 26.8608H15.4023C12.6812 26.8608 10.4819 24.6615 10.4819 21.9404C10.4819 19.2193 12.6812 17.02 15.4023 17.02H27.7405Z"/><path id="Vector_4" fill="#2EB67D" d="M47.4594 21.9404C47.4594 19.2193 49.6587 17.02 52.3798 17.02C55.1009 17.02 57.3002 19.2193 57.3002 21.9404C57.3002 24.6615 55.1009 26.8608 52.3798 26.8608H47.4594V21.9404ZM44.9992 21.9404C44.9992 24.6615 42.7999 26.8608 40.0788 26.8608C37.3577 26.8608 35.1584 24.6615 35.1584 21.9404V9.60215C35.1584 6.88102 37.3577 4.68176 40.0788 4.68176C42.7999 4.68176 44.9992 6.88102 44.9992 9.60215V21.9404V21.9404Z"/><path id="Vector_5" fill="#ECB22E" d="M40.0788 41.6592C42.7999 41.6592 44.9992 43.8585 44.9992 46.5796C44.9992 49.3007 42.7999 51.5 40.0788 51.5C37.3577 51.5 35.1584 49.3007 35.1584 46.5796V41.6592H40.0788ZM40.0788 39.199C37.3577 39.199 35.1584 36.9998 35.1584 34.2787C35.1584 31.5575 37.3577 29.3583 40.0788 29.3583H52.4171C55.1382 29.3583 57.3374 31.5575 57.3374 34.2787C57.3374 36.9998 55.1382 39.199 52.4171 39.199H40.0788Z"/></g></g></g></svg>

<svg xmlns="http://www.w3.org/2000/svg" fill="none" aria-hidden="true" viewBox="0 0 206 57"><path fill="#000" d="m69.676 41.547 2.31-5.367c2.498 1.864 5.816 2.833 9.096 2.833 2.423 0 3.951-.932 3.951-2.349-.037-3.951-14.5-.857-14.612-10.772-.037-5.033 4.436-8.91 10.773-8.91 3.765 0 7.53.933 10.213 3.057l-2.162 5.48c-2.46-1.566-5.516-2.684-8.424-2.684-1.975 0-3.28.932-3.28 2.125.037 3.876 14.612 1.752 14.761 11.22 0 5.144-4.361 8.76-10.624 8.76-4.584 0-8.797-1.081-12.002-3.393Zm88.678-7.306c-1.155 2.013-3.317 3.392-5.815 3.392a6.665 6.665 0 0 1-6.672-6.672 6.665 6.665 0 0 1 6.672-6.672c2.498 0 4.66 1.379 5.815 3.392l6.375-3.541c-2.386-4.25-6.971-7.157-12.19-7.157-7.716 0-13.978 6.262-13.978 13.978s6.262 13.979 13.978 13.979c5.256 0 9.804-2.87 12.19-7.157l-6.375-3.542ZM95.508 5.39h7.977v39.028h-7.977V5.39Zm72.352 0v39.028h7.977V32.713l9.468 11.705h10.213l-12.04-13.904 11.146-12.972h-9.767l-9.02 10.772V5.39h-7.977Zm-40.668 28.926c-1.156 1.901-3.541 3.317-6.225 3.317a6.665 6.665 0 0 1-6.672-6.672 6.665 6.665 0 0 1 6.672-6.672c2.684 0 5.069 1.49 6.225 3.43v6.597Zm0-16.774v3.168c-1.305-2.199-4.548-3.727-7.94-3.727-7.008 0-12.524 6.188-12.524 13.94 0 7.754 5.516 14.017 12.524 14.017 3.392 0 6.635-1.529 7.94-3.728v3.168h7.977V17.542h-7.977Z"/><path fill="#E01E5A" d="M20.36 34.279c0 2.72-2.2 4.92-4.92 4.92-2.722 0-4.92-2.2-4.92-4.92a4.914 4.914 0 0 1 4.92-4.92h4.92v4.92Zm2.46 0c0-2.722 2.2-4.92 4.92-4.92a4.914 4.914 0 0 1 4.92 4.92v12.3a4.915 4.915 0 0 1-4.92 4.921c-2.72 0-4.92-2.2-4.92-4.92V34.279Z"/><path fill="#36C5F0" d="M27.74 14.523c-2.72 0-4.92-2.2-4.92-4.92 0-2.722 2.2-4.921 4.92-4.921a4.915 4.915 0 0 1 4.92 4.92v4.92h-4.92Zm0 2.497c2.722 0 4.92 2.2 4.92 4.92a4.915 4.915 0 0 1-4.92 4.92H15.403a4.915 4.915 0 0 1-4.92-4.92c0-2.72 2.2-4.92 4.92-4.92h12.339Z"/><path fill="#2EB67D" d="M47.46 21.94c0-2.72 2.199-4.92 4.92-4.92 2.72 0 4.92 2.2 4.92 4.92 0 2.721-2.2 4.92-4.92 4.92h-4.92v-4.92Zm-2.46 0c0 2.721-2.2 4.92-4.921 4.92s-4.92-2.198-4.92-4.92V9.602a4.915 4.915 0 0 1 4.92-4.92c2.72 0 4.92 2.199 4.92 4.92V21.94Z"/><path fill="#ECB22E" d="M40.079 41.66c2.72 0 4.92 2.199 4.92 4.92 0 2.72-2.2 4.92-4.92 4.92-2.721 0-4.92-2.2-4.92-4.92v-4.92h4.92Zm0-2.461c-2.721 0-4.92-2.2-4.92-4.92a4.915 4.915 0 0 1 4.92-4.92h12.338a4.915 4.915 0 0 1 4.92 4.92c0 2.72-2.199 4.92-4.92 4.92H40.08Z"/></svg>
